X:1
T:Lo! He Cometh
T:Lo! He Cometh
T:Isaac N. McHose
T:Thomas O. Blair, 1891
T:Public Domain Courtesy of the Cyber Hymnal™
T:Public Domain Courtesy of the Cyber Hymnal™
C:Isaac N. McHose
Z:Public Domain
Z:Courtesy of the Cyber Hymnal™
%%score 1 2
L:1/8
Q:1/4=100
M:4/4
K:G
V:1 treble 
V:2 bass 
V:1
 [GB]3 [G^A] [GB]3 [GA] | [GB]>[Gc] [Gd]>[Ge] [Gd]2 [GB]2 | [FA]3 [^E^G] [FA]3 [EG] | %3
w: 1.~Lo! He com- eth|in the clouds of hea- ven,|An- gel hosts at-|
w: 2.~Earth- ly con- querors,|how- e’er vic- to- ri- ous,|Con- quered now by|
w: 3.~See the ci- ty|of our God des- cend- ing;|Hark! the voic- es|
 [FA]>[GB] [Ac]>[GB] [FA]4 | [GB]3 [G^A] [GB]3 [GA] | [GB]>[Gc] [Gd]>[Ge] [Gd]2 [GB]2 | %6
w: tend the King of kings;|Rocks are rent and|graves a- sun- der riv- en,|
w: Him who rules a- lone,|Yield their crowns to|One more great and glor- ious,|
w: of the heav’n- ly throngs;|Sin and death and|hell no more con- tend- ing,|
 [FA]3 [^E^G] [FA]3 [EG] | [FA]>[Ac] [GB]>[DA] [DG]4 |:"^Refrain" [Ge]3 [G^d] [Ge]2 [Gc]2 | %9
w: Saints a- rise, and|joy His com- ing brings.||
w: For the thrones and|king- doms are His own.|Praise Him, praise Him,|
w: Peace to Zi- on|ev- er- more be- longs.||
 [Gd]>[G^c] [Gd]>[Ge] [Gd]2 [GB]2 |1 [Ac]3 [^GB] [Ac]2 [FA]2 | [GB]>[Gc] [Gd]>[Ge] [Gd]4 :|2 %12
w: |||
w: all ye na- tions, praise Him;|Praise Him, crown Him,|crown the King of kings.|
w: |||
 [FA]3 [GB] [Ac]2 [FA]2 || [Fd]>[Fc] [GB]>[DA] [DG]4 |] %14
w: ||
w: Praise Him, crown Him,|crown the King of kings.|
w: ||
V:2
 [G,D]3 [G,^C] [G,D]3 [G,C] | [G,D]>[G,E] [G,B,]>[G,C] [G,B,]2 [G,D]2 | [D,D]3 [D,D] [D,D]3 [D,D] | %3
 [D,D]>[D,D] [D,D]>[D,D] [D,D]4 | [G,D]3 [G,^C] [G,D]3 [G,C] | %5
 [G,D]>[G,E] [G,B,]>[G,C] [G,B,]2 [G,D]2 | [D,D]3 [D,D] [D,D]3 [D,D] | %7
 [D,D]>[D,D] [D,D]>[D,D] [G,B,]4 |: [C,C]3 [C,C] [C,C]2 [C,E]2 | %9
 [G,B,]>[G,^A,] [G,B,]>[G,C] [G,B,]2 [G,D]2 |1 [D,D]3 [D,D] [D,D]2 [D,D]2 | %11
 [G,D]>[G,E] [G,B,]>[G,C] [G,B,]4 :|2 [D,D]3 [D,D] [D,D]2 [D,D]2 || %13
 [D,D]>[D,D] [D,D]>[D,D] [G,B,]4 |] %14

